X:13
T:Sweeney's Dream
R:reel
D:i.Tony Linnane & Noel Hill ii. Paddy Killoran
S:Clare FM
Z:psc -  http://www.cranfordpub.com
L:1/8
Q:333
M:C|
K:D
c|dF ~F2 ABdf|gfeg fdBc|dF ~F2 ABdB|AFDF E2 D:|
||e|faab afdf|gfed (3(Bcd) eg|fa ~a2 bf ~f2|gfeg fddf|
fa ~a2 bf ~f2|gfeg fdBc|dF ~F2 ABdf|gfeg f2 e|]
